X: 6715
T: Ceridwen & Martin's Nusa Lembongan Wedding
R: three-two
M: 3/2
K: Dmajor
dA A2 dABd d2 AB|dA A2 dAfe e2 dB|
dA A2 dABd d2 AB|BAfe e2 dB d4:|
|:f2 ef eABd d2 AB|f2 ef aAfe e2 dB|
f2 ef eABd d2 AB|BAfe e2 dB d4:|

